src/assets/2015.svg

<svg width="2461" height="2175" fill="none" xmlns="http://www.w3.org/2000/svg">
  <g filter="url(#filter0_d)">
    <path d="M1679.22 698.267c-35.74-33.733-6.33-180.54-128.1-213.284C1388.65 441.293 302.862.308 302.862.308L25.76 529.489S696.477 1226.46 735.898 1267.4c39.421 40.93 208.601 133.56 324.812 102.1 116.22-31.47 155.42-90.2 155.42-50.08 0 40.12-102.66 196.89-35.37 263.76 67.28 66.87 190.58 72.14 278.25 109.9 87.67 37.76-100.57 347.65 251.61 400.87 352.18 53.22 282.51-214.88 307.66-256.58 25.14-41.69 127.18 6.94 166.6-15.09 39.41-22.03 34.13-106.44 79.84-137.42 45.72-30.98 60.03-16.29 121.32-35.75 61.3-19.46 47.71-161.73 42.85-169.99-4.86-8.26-36.65-83.41-45.71-100.09-8.9-16.38-12.97-26.64-23.29-52.59l-.56-1.43c-10.73-27 13.29-53.69 37.76-101.67 24.47-47.99 69.33-103.71 4.77-157.68-64.56-53.98-154.2 17.44-192.78-36.15-38.59-53.588 5.86-91.347-79.9-125.504-85.76-34.158-228.56 64.398-296.53 53.221-67.98-11.176-13.52-127.494-37.76-160.062-24.25-32.569-79.93-65.165-115.67-98.898z" fill="#fff"/>
  </g>
  <defs>
    <filter id="filter0_d" x=".76" y=".308" width="2459.42" height="2174.6" filterUnits="userSpaceOnUse" color-interpolation-filters="sRGB">
      <feFlood flood-opacity="0" result="BackgroundImageFix"/>
      <feColorMatrix in="SourceAlpha" values="0 0 0 0 0 0 0 0 0 0 0 0 0 0 0 0 0 0 127 0"/>
      <feOffset dy="49"/>
      <feGaussianBlur stdDeviation="12.5"/>
      <feColorMatrix values="0 0 0 0 0 0 0 0 0 0 0 0 0 0 0 0 0 0 0.25 0"/>
      <feBlend in2="BackgroundImageFix" result="effect1_dropShadow"/>
      <feBlend in="SourceGraphic" in2="effect1_dropShadow" result="shape"/>
    </filter>
  </defs>
</svg>

<svg width="2461" height="2175" viewBox="0 0 2461 2175" fill="none" xmlns="http://www.w3.org/2000/svg">
<g filter="url(#filter0_d)">
<path d="M1679.22 698.267C1643.48 664.534 1672.89 517.727 1551.12 484.983C1388.65 441.293 302.862 0.307617 302.862 0.307617L25.7598 529.489C25.7598 529.489 696.477 1226.46 735.898 1267.4C775.319 1308.33 944.499 1400.96 1060.71 1369.5C1176.93 1338.03 1216.13 1279.3 1216.13 1319.42C1216.13 1359.54 1113.47 1516.31 1180.76 1583.18C1248.04 1650.05 1371.34 1655.32 1459.01 1693.08C1546.68 1730.84 1358.44 2040.73 1710.62 2093.95C2062.8 2147.17 1993.13 1879.07 2018.28 1837.37C2043.42 1795.68 2145.46 1844.31 2184.88 1822.28C2224.29 1800.25 2219.01 1715.84 2264.72 1684.86C2310.44 1653.88 2324.75 1668.57 2386.04 1649.11C2447.34 1629.65 2433.75 1487.38 2428.89 1479.12C2424.03 1470.86 2392.24 1395.71 2383.18 1379.03C2374.28 1362.65 2370.21 1352.39 2359.89 1326.44L2359.33 1325.01C2348.6 1298.01 2372.62 1271.32 2397.09 1223.34C2421.56 1175.35 2466.42 1119.63 2401.86 1065.66C2337.3 1011.68 2247.66 1083.1 2209.08 1029.51C2170.49 975.922 2214.94 938.163 2129.18 904.006C2043.42 869.848 1900.62 968.404 1832.65 957.227C1764.67 946.051 1819.13 829.733 1794.89 797.165C1770.64 764.596 1714.96 732 1679.22 698.267Z" fill="white"/>
</g>
<defs>
<filter id="filter0_d" x="0.759766" y="0.307617" width="2459.42" height="2174.6" filterUnits="userSpaceOnUse" color-interpolation-filters="sRGB">
<feFlood flood-opacity="0" result="BackgroundImageFix"/>
<feColorMatrix in="SourceAlpha" type="matrix" values="0 0 0 0 0 0 0 0 0 0 0 0 0 0 0 0 0 0 127 0"/>
<feOffset dy="49"/>
<feGaussianBlur stdDeviation="12.5"/>
<feColorMatrix type="matrix" values="0 0 0 0 0 0 0 0 0 0 0 0 0 0 0 0 0 0 0.25 0"/>
<feBlend mode="normal" in2="BackgroundImageFix" result="effect1_dropShadow"/>
<feBlend mode="normal" in="SourceGraphic" in2="effect1_dropShadow" result="shape"/>
</filter>
</defs>
</svg>
